!!!COM: Music21
!!!OTL: Palla de millo
!!!OMV: pezas_polca_palla-de-millo_palla-de-millo-partitura.musicxml
**kern
*part1
*staff1
*I"Gaita
*I'Bag
*clefG^2
*k[b-]
*M2/4
*MM120
=1
!LO:TX:a:t=[quarter]=120
8ffL
8ffJ
16ffLL
16ee
16ff
16ggJJ
=
8aaL
8ccJ
8.ccL
16bb-Jk
=
8aaL
8ggJ
8.ccL
16aaJk
=
8ggL
8ffJ
4cc
=
8ffL
8ffJ
16ffLL
16ee
16ff
16ggJJ
=
8aaL
8ccJ
8.ccL
16bb-Jk
=
8aaL
8ggJ
8ccL
8eeJ
!!linebreak:original
=
2ff
=||
*M2/4
*MM120
!LO:TX:a:t=[quarter]=120
8ffL
8ffJ
16ffLL
16ee
16ff
16ggJJ
=
8aaL
8ccJ
8.ccL
16bb-Jk
=
8aaL
8ggJ
8.ccL
16aaJk
=
8ggL
8ffJ
4cc
=
8ffL
8ffJ
16ffLL
16ee
16ff
16ggJJ
=
8aaL
8ccJ
8.ccL
16bb-Jk
!!linebreak:original
=
8aaL
8ggJ
8ccL
8eeJ
=
4.ff
16aaLL
16bb-JJ
!!linebreak:original
=||
8.cccL
16aaJk
8.bb-L
16ggJk
=
8aaL
8ffJ
16ffLL
16gg
16aa
16ffJJ
=
8ggL
8ccJ
16ffLL
16gg
16aa
16bb-JJ
=
8ggL
[8ccJ
8ccL]
16aaL
16bb-JJ
=
8.cccL
16aaJk
8.bb-L
16ggJk
=
8aaL
8ffJ
16ffLL
16gg
16aa
16ffJJ
!!linebreak:original
=
8ggL
8ccJ
16ccLL
16dd
16ee
16ccJJ
=
4.ff
16aaLL
16bb-JJ
!!pagebreak:original
=||
8.cccL
16aaJk
8.bb-L
16ggJk
=
8aaL
8ffJ
16ffLL
16gg
16aa
16ffJJ
=
8ggL
8ccJ
16ffLL
16gg
16aa
16bb-JJ
=
8ggL
[8ccJ
8ccL]
16aaL
16bb-JJ
=
8.cccL
16aaJk
8.bb-L
16ggJk
=
8aaL
8ffJ
16ffLL
16gg
16aa
16ffJJ
!!linebreak:original
=
8ggL
8ccJ
16ccLL
16dd
16ee
16ccJJ
!!linebreak:original
=
4.ff
16ccLL
16ddJJ
=||
*k[]
8eeL
16eeL
16ggJJ
8ddL
16ddL
16ggJJ
=
8ccL
16ccL
16eeJJ
8.ggL
16eeJk
=
8ddL
16ddL
16ffJJ
16eeLL
16dd
16cc
16ddJJ
=
8eeL
[8ddJ
8ddL]
16ccL
16ddJJ
=||
8eeL
16eeL
16ggJJ
8ddL
16ddL
16ggJJ
!!linebreak:original
=
8ccL
16ccL
16eeJJ
8.ggL
16eeJk
=
8ddL
16ddL
16ffJJ
16eeLL
16dd
16cc
16bJJ
=
2cc
=
8ggL
[8ddJ
8ddL]
8eeJ
!!linebreak:original
=
4cc
8eeL
8aaJ
=
8ggL
8ffJ
8eeL
8ddJ
=
8eeL
16eeL
16ddJJ
16ccLL
16dd
16ee
16ffJJ
=
8ggL
8ddJ
8ffL
16eeL
16ccJJ
=
16ggLL
16ff
16ee
16ffJJ
8ddL
16aaL
16ggJJ
=
16ffLL
16ee
16dd
16ccJJ
8bL
8ggJ
=
2ccc
==
*-
!!!system-decoration: s1,s2
